X: 7
T: The Salamanca
R: reel
M: 4/4
L: 1/8
K: Dmaj
dB |: "D"AD F/E/D AD F/E/D|Adcd fedc|"Em"BE E/E/E B,E E/E/E |Beed "A"cdeg|
"Bm"fB B/B/B FB B/B/B | "D"fgfe dfag | "A"fdec dBAG|1 ."A"FGEF "D"D2 dB :|2."A"FGEF "D"D2 fg||
|:"D"afdg "G"bgeg|"D"fdcd BAFA|"Em"Addc defg|"A"a/a/b ^gb a2 f=g|
"Bm"a/a/a af "G"g/g/g ge|"D"fdec "Em"dfag|"A"fdec dBAG|1."A"FGEF D2 "D"fg:|2."A"FGEF "D"D4||


Tune 99	Setting 12657

